X:1
T:Sir John A. MacDonald Society
M:C
L:1/8
Q:80
C:Michael J. Evans '88
S:March
K:HP
[| {Gdc}d3/2e/2{g}f{g}e3/4d/4{g}e{g}A{GAG}A{gf}g | \
{a}f3/2g/2{ag}af{gf}g2-gB | \
{g}f3/2e/2{g}df{g}e3/2d/2{g}ce |
{Gdc}d3/2e/2{g}f{gf}g{ef}e2{A}eA{Gdc}d3/2e/2{g}f{g}e3/4d/4{g}e{g}A{GAG}A
{gf}g | \
{a}f3/2g/2{ag}af{gf}g2-gB | \
{g}f3/2e/2{g}df{g}e3/2d/2{g}ce |
{g}d/2{e}A3/2{g}f3/2e/2{Gdc}d2{gdc}dA|] [ | \
{ag}a3/2g/2{a}f3/4e/4d{gf}g3/2f/2{g}ec | \
{g}f3/2e/2{g}d3/4c/4B{G}A2-A2 |
{gf}g3/2f/2{g}eg{a}f3/2e/2{g}de | \
{g}d/2{e}A3/2g3/2f/2{g}e2{A}eA{Gdc}d3/2e/2{g}f{g}e3/4d/4{g}e{g}A{GAG}A{g
f}g | \
{a}f3/2g/2{ag}af{gf}g2-gB |
{g}f3/2e/2{g}df{g}e3/2d/2{g}ce | \
{g}d/2{e}A3/2{g}f3/2e/2{Gdc}d2{gdc}d2|]
